X:218
T:score293
L:1/8
Q:1/4=120
M:6/8
I:linebreak $
K:C
 G3- Gcd | e3- efe | d3- ded | c3- cBA | G3- Gcd | e3- efe | d3- ded | c3- c2 z |] %8
